T: Difyrrwch Gwyr Mawddwy
M: 4/4
L: 1/8
K: Dmaj
de |: f3 g f2 e2 | f2 d2 d2 A2 | BcdB A2 {B}AG | F3 G A2 F2 |
G3 A B2 AG | F2 d2 c2 B2 | A2 (3ABA G2 F2  |1 E2 D4 de :|2 E2 D4  DE ||
|:F3 D F2 A2 | BcdB A2 F2 | B3 A B2 c2 | defe d2 c2 |
~B3 A Bcde |f3 e f2 A2 | Bcde {f}edcB | A2^G2 A4 |
f3 g f2 e2 |f2 d2 d2 A2 | BcdB A2 {B}AG | F3 G A2 F2 |
G3 A B2 AG |F2 d2 c2 B2 | A2 (3ABA G2 F2 | E2 D4 DE :|
